X: 21181
U: p=!crescendo(!
U: P=!crescendo)!
U: Q=!diminuendo(!
U: q=!diminuendo)!
M: 6/8
L: 1/8
K: D
V: 1 staves=3
d2d (dc)d | e2A A2A | e2e ede | f2d d2a |\
f2d AFD | HA3 z2z | !ff!d2z z2!p!=c | B2A G2z |\
!ff!e2z z2!p!d | c2B A2A |
c2A d2z | !ff!e2z !p!z2a | g2f e2z | !ff!e2pz PQ"echo."e2qz |\
!f!e2pz PQ"echo."e2qz | !f!e2pz PQ"echo."e2qz |\
z2z z2d | A2A A2A | d2pz PQ"echo."d2qz | d2pz PQ"echo."d2qz |
z2z z2e | B2B B2B | e2pz PQ"echo."e2qz | e2pz PQe2qA |\
(cB)c d2d | (ede) (fe)d | !ff!e6- | e4z2 |\
pe6- PQ"echo."| qe6 |
z2z z2f/g/ | a3 g3 |\
fed edc | !f!d2pz PQ"echo."d2qz | !f!f2pz PQ"echo."f2qz | !f!a2f a2z |\
(pa2PQf qa2)z | z2z Hz2F/G/ | A2A B2g | (fg)e d2 |]
V: 2
d2A F2f | He3 z2z | z2!p!A d2z | e2=c B2z |
z2!p!B e2z | e2d c2c | (ed)c (fe)d | g2z z2f |\
e2d c2B | c2pz PQe2qe | A2pz PQe2qc | c2pz PQe2qf |
d2d A2A | d2d (de)c | B2pz PQd2qz | B2pz PQd2q(^g/f/) |\
e2e B2B | e2e (ef)d | c2pz PQe2qz | c2pz PQe2qA |
E2A F2A | c2A d2A | !ff!c6- | c4z2 |
pc6- PQ| qc6 | z2z z2d/e/ | f3 e3 | dAF GFE |
!f!F2pz PQA2qz | !f!d2pz PQd2qz | !f!f2d f2z | (pf2PQd qf2)z |\
z2z Hz2D/E/ | F2F d2B | (Ae)c d2 |]
V: 3
E2z z2^G | A2A A2A | A3- A2z | A2A A2A |\
^G2G E2E | ^G2G E2E | A2pz PQe2qz | A2pz PQe2qE |
pA6- PQ| qA6 | z2z z2A | d3 A3 | dDD AAA |
!f!D2pz PQF2qz | !f!A2pz PQA2qz | !f!d2A d2z | (pf2PQA qd2)z |\
z2z Hz2d/d/ | D2D G2G | A2A D2 |]



